X: 1594
T: Jim Lowe's Step Tune
B: australian traditional tunes wiki
M:4/4
L:1/8
R: Reel
Q: 1/4=100
K:G
V:1 
D2|"G"G2GAB2A2|GA BG"C" E2"D"D2|"G"GA Bd ed BG|"D"AzA4cA|"G"G2GAB2A2|GA BG"C"E2"D"D2|"G"GA Bd ed BG|"A7"Az"G"G2G2Bd|
|"G"g2dg"C"e2dB|"G"GA BG"C"E2"D" D2|"G"GA Bd ed BG|"D"AzA4ef|"G"g2dg"C"e2dB|"G"GA BG"C"E2"D"D2|"G"GA Bd ed BG|"A7"Az"G"G2Gz||
% abcbook-tune_id 6342d53a7175246869426f3b


% abcbook-boost 0
% abcbook-tablature 
% abcbook-transpose 
% abcbook-lastupdated 1665324372952
% abcbook-soundfonts 
% abcbook-repeats 1
% NFF Book 2018

